X: 156
T: The Noon Herald
%R: reel
B: Chas & Sam Thompson "Twenty Four Country Dances for the Year 1782", London 1782, p.78 #2
F: http://www.vwml.org/browse/browse-collections-dance-tune-books/browse-thompsons1782
Z: 2014 John Chambers <jc:trillian.mit.edu> (added dance description)
M: 2/4
L: 1/16
K: A
% - - - - - - - - - - - - - - - - - - - - - - - - - - - - -
|:\
.A(aga) ecAc | dBGA BGE2 |\
.A(aga) (ecAc) | dBGE A2A2 :|
|:\
ecAc dBGB | cAGA B2GE |\
ecAc dBGB | efge a2A2 :|
% - - - - - - - - - - Dance description - - - - - - - - - -
%%begintext align
%% Cast of 2 Cu: up again .|. lead down the
%% middle up again and cast of :|. set Corners
%% .|: and lead out sides :|:
%%endtext

